src/assets/filled/Send1.svg

<svg width="24" height="24" viewBox="0 0 24 24"  xmlns="http://www.w3.org/2000/svg">
<path d="M18.07 8.50965L9.51002 4.22965C3.76002 1.34965 1.40002 3.70965 4.28002 9.45965L5.15002 11.1996C5.40002 11.7096 5.40002 12.2996 5.15002 12.8096L4.28002 14.5396C1.40002 20.2896 3.75002 22.6496 9.51002 19.7696L18.07 15.4896C21.91 13.5696 21.91 10.4296 18.07 8.50965ZM14.84 12.7496H9.44002C9.03002 12.7496 8.69002 12.4096 8.69002 11.9996C8.69002 11.5896 9.03002 11.2496 9.44002 11.2496H14.84C15.25 11.2496 15.59 11.5896 15.59 11.9996C15.59 12.4096 15.25 12.7496 14.84 12.7496Z" />
</svg>

<?xml version="1.0" encoding="UTF-8"?>
<svg width="24" height="24" viewBox="0 0 24 24" xmlns="http://www.w3.org/2000/svg">
 <path d="m18.07 8.5096-8.56-4.28c-5.75-2.88-8.11-0.52-5.23 5.23l0.87 1.74c0.25 0.51 0.25 1.1 0 1.61l-0.87 1.73c-2.88 5.75-0.53 8.11 5.23 5.23l8.56-4.28c3.84-1.92 3.84-5.06 0-6.98zm-3.23 4.24h-5.4c-0.41 0-0.75-0.34-0.75-0.75s0.34-0.75 0.75-0.75h5.4c0.41 0 0.75 0.34 0.75 0.75s-0.34 0.75-0.75 0.75z"/>
</svg>
